X:1
T:Aquilla, 87.87
T:Aquilla, 87.87
T:Niccolò Antonio Zingarelli (1752-1837)
T:Public Domain Courtesy of the Cyber Hymnal™
C:Niccolò Antonio Zingarelli (1752-1837)
Z:Public Domain
Z:Courtesy of the Cyber Hymnal™
%%score ( 1 2 ) ( 3 4 )
L:1/8
Q:1/4=125
M:3/4
K:F
V:1 treble 
V:2 treble 
V:3 bass 
V:4 bass 
V:1
 [FA]4 [FG]2 | [FB]4 [FA]2 | [Fd]4 [Fc]2 | (cB) [FA]2 z2 | [EG]4 [CE]2 | [CF]4 [CG]2 | %6
 [FA]4 [F=B]2 | [Ec]4 z2 | [CA]4 [CG]2 | [FB]4 [EA]2 | d4 [Fc]2 | (cB) [FA]2 z2 | %12
 ([Af]2 [FA]2) [GA]2 | (A3 c) ([FB][DG]) | (F3 G) [CE]2 | [CF]6 |] %16
V:2
 x6 | x6 | x6 | G2 x4 | x6 | x6 | x6 | x6 | x6 | x6 | (D3 E) x2 | E2 x4 | x6 | F4 x2 | C4 x2 | %15
 x6 |] %16
V:3
 [F,C]4 [F,B,]2 | [F,D]4 [F,C]2 | [F,B,]4 [F,A,]2 | [E,C]2 [F,C]2 z2 | [C,C]4 [C,B,]2 | %5
 [C,A,]4 [E,C]2 | [F,C]4 [D,G,]2 | [C,G,]4 z2 | F,4 E,2 | D,4 C,2 | (C,2 B,2) A,2 | G,2 F,2 z2 | %12
 [F,C]4 [E,^C]2 | [D,D]4 (DB,) | (A,3 B,) [C,G,]2 | [F,,F,A,]6 |] %16
V:4
 x6 | x6 | x6 | x6 | x6 | x6 | x6 | x6 | x6 | x6 | x6 | x6 | x6 | x4 B,,2 | C,4 x2 | x6 |] %16

